Resources/app/storefront/src/assets/icon-pack/cinema/ic-close.svg

<?xml version="1.0" encoding="UTF-8"?><svg width="14" height="14" xmlns="http://www.w3.org/2000/svg" xmlns:xlink="http://www.w3.org/1999/xlink"><defs><path d="M5.3 5.3c.4-.4 1-.4 1.4 0l5.2 5.1L17 5.3c.4-.4 1-.4 1.4 0 .4.4.4 1 0 1.4l-5.1 5.1-.05.05 5.05 5.05c.37.37.4.9.09 1.3l-.09.1c-.2.2-.5.3-.7.3-.2 0-.5-.1-.7-.3l-5.1-5.1-5.1 5.1c-.2.2-.5.3-.7.3-.2 0-.5-.1-.7-.3-.4-.4-.4-1 0-1.4l5.1-5.1-5.1-5.1c-.4-.4-.4-1 0-1.4Z" id="a"/></defs><g transform="translate(-5 -5)" fill="none" fill-rule="evenodd"><mask id="b" fill="#fff"><use xlink:href="#a"/></mask><use fill="#000" fill-rule="nonzero" xlink:href="#a"/><g mask="url(#b)" fill="#071C31"><path d="M0 0h24v24H0z"/></g></g></svg>

<?xml version="1.0" encoding="UTF-8"?>
<svg width="14px" height="14px" viewBox="0 0 14 14" version="1.1" xmlns="http://www.w3.org/2000/svg" xmlns:xlink="http://www.w3.org/1999/xlink">
    <title>09E261C3-BE6C-4D98-9C1A-12488E80A410@1x</title>
    <defs>
        <path d="M5.3,5.3 C5.7,4.9 6.3,4.9 6.7,5.3 L6.7,5.3 L11.9,10.4 L17,5.3 C17.4,4.9 18,4.9 18.4,5.3 C18.8,5.7 18.8,6.3 18.4,6.7 L18.4,6.7 L13.3,11.8 L13.249,11.848 L18.3,16.9 C18.6692308,17.2692308 18.6976331,17.8088757 18.3852071,18.2043241 L18.3,18.3 C18.1,18.5 17.8,18.6 17.6,18.6 C17.4,18.6 17.1,18.5 16.9,18.3 L16.9,18.3 L11.8,13.2 L6.7,18.3 C6.5,18.5 6.2,18.6 6,18.6 C5.8,18.6 5.5,18.5 5.3,18.3 C4.9,17.9 4.9,17.3 5.3,16.9 L5.3,16.9 L10.4,11.8 L5.3,6.7 C4.9,6.3 4.9,5.7 5.3,5.3 Z" id="path-1"></path>
    </defs>
    <g id="Lizenzen-&amp;-Assets-✅" stroke="none" stroke-width="1" fill="none" fill-rule="evenodd">
        <g id="Icons" transform="translate(-248.000000, -656.000000)">
            <g id="Group" transform="translate(243.000000, 651.000000)">
                <mask id="mask-2" fill="white">
                    <use xlink:href="#path-1"></use>
                </mask>
                <use id="Combined-Shape" fill="#000000" fill-rule="nonzero" xlink:href="#path-1"></use>
                <g mask="url(#mask-2)" fill="#071C31" id="Rectangle">
                    <g>
                        <rect x="0" y="0" width="24" height="24"></rect>
                    </g>
                </g>
            </g>
        </g>
    </g>
</svg>
